svg/color/lsr.svg

<?xml version="1.0" encoding="UTF-8" ?>
<!DOCTYPE svg PUBLIC "-//W3C//DTD SVG 1.1//EN" "http://www.w3.org/Graphics/SVG/1.1/DTD/svg11.dtd">
<svg width="250pt" height="250pt" viewBox="0 0 250 250" version="1.1" xmlns="http://www.w3.org/2000/svg">
<g id="#fcfefeff">
<path fill="#fcfefe" opacity="1.00" d=" M 0.00 0.00 L 112.42 0.00 C 65.18 5.45 22.22 38.64 6.85 83.88 C 3.56 93.18 2.27 103.01 0.00 112.57 L 0.00 0.00 Z" />
<path fill="#fcfefe" opacity="1.00" d=" M 137.58 0.00 L 250.00 0.00 L 250.00 113.58 C 247.58 103.98 247.02 93.95 243.42 84.63 C 228.13 38.95 185.17 5.46 137.58 0.00 Z" />
<path fill="#fcfefe" opacity="1.00" d=" M 168.91 241.93 C 213.37 226.10 244.95 183.07 250.00 136.57 L 250.00 250.00 L 136.42 250.00 C 147.28 247.49 158.61 246.55 168.91 241.93 Z" />
<path fill="#fcfefe" opacity="1.00" d=" M 0.00 137.43 C 2.68 149.26 4.39 161.48 9.41 172.63 C 26.43 215.08 68.13 245.26 113.43 250.00 L 0.00 250.00 L 0.00 137.43 Z" />
</g>
<g id="#1bcdc2ff">
<path fill="#1bcdc2" opacity="1.00" d=" M 112.42 0.00 L 137.58 0.00 C 185.17 5.46 228.13 38.95 243.42 84.63 C 247.02 93.95 247.58 103.98 250.00 113.58 L 250.00 136.57 C 244.95 183.07 213.37 226.10 168.91 241.93 C 158.61 246.55 147.28 247.49 136.42 250.00 L 113.43 250.00 C 68.13 245.26 26.43 215.08 9.41 172.63 C 4.39 161.48 2.68 149.26 0.00 137.43 L 0.00 112.57 C 2.27 103.01 3.56 93.18 6.85 83.88 C 22.22 38.64 65.18 5.45 112.42 0.00 M 124.33 17.52 C 82.34 17.33 41.98 44.26 26.12 83.11 C 6.04 127.45 22.15 184.17 61.97 212.02 C 95.83 237.60 144.92 239.02 180.79 216.82 C 221.91 192.63 242.58 139.60 227.90 94.04 C 215.11 49.56 170.78 16.24 124.33 17.52 Z" />
<path fill="#1bcdc2" opacity="1.00" d=" M 120.35 109.30 C 135.56 104.09 148.71 125.90 136.31 136.31 C 127.14 147.23 106.89 138.24 108.93 124.00 C 108.77 117.19 114.44 111.79 120.35 109.30 Z" />
</g>
<g id="#080e16ff">
<path fill="#080e16" opacity="1.00" d=" M 124.33 17.52 C 170.78 16.24 215.11 49.56 227.90 94.04 C 242.58 139.60 221.91 192.63 180.79 216.82 C 144.92 239.02 95.83 237.60 61.97 212.02 C 22.15 184.17 6.04 127.45 26.12 83.11 C 41.98 44.26 82.34 17.33 124.33 17.52 M 120.35 109.30 C 114.44 111.79 108.77 117.19 108.93 124.00 C 106.89 138.24 127.14 147.23 136.31 136.31 C 148.71 125.90 135.56 104.09 120.35 109.30 Z" />
</g>
</svg>

<?xml version="1.0" encoding="utf-8"?>
<!-- Generator: Adobe Illustrator 26.0.3, SVG Export Plug-In . SVG Version: 6.00 Build 0)  -->
<svg version="1.1" id="Layer_1" xmlns="http://www.w3.org/2000/svg" xmlns:xlink="http://www.w3.org/1999/xlink" x="0px" y="0px"
	 viewBox="0 0 250 250" style="enable-background:new 0 0 250 250;" xml:space="preserve">
<style type="text/css">
	.st0{fill:#1BCDC2;}
	.st1{fill:#080E16;}
</style>
<g id="_x23_1bcdc2ff">
	<path class="st0" d="M112.4,0h25.2c47.6,5.5,90.6,39,105.8,84.6c3.6,9.3,4.2,19.4,6.6,29v23c-5.1,46.5-36.6,89.5-81.1,105.4
		c-10.3,4.6-21.6,5.6-32.5,8.1h-23c-45.3-4.7-87-34.9-104-77.4c-5-11.2-6.7-23.4-9.4-35.2v-24.9c2.3-9.6,3.6-19.4,6.8-28.7
		C22.2,38.6,65.2,5.4,112.4,0 M124.3,17.5c-42-0.2-82.4,26.7-98.2,65.6C6,127.4,22.1,184.2,62,212c33.9,25.6,82.9,27,118.8,4.8
		c41.1-24.2,61.8-77.2,47.1-122.8C215.1,49.6,170.8,16.2,124.3,17.5z"/>
	<path class="st0" d="M120.3,109.3c15.2-5.2,28.4,16.6,16,27c-9.2,10.9-29.4,1.9-27.4-12.3C108.8,117.2,114.4,111.8,120.3,109.3z"/>
</g>
<g id="_x23_080e16ff">
	<path class="st1" d="M124.3,17.5c46.4-1.3,90.8,32,103.6,76.5c14.7,45.6-6,98.6-47.1,122.8C144.9,239,95.8,237.6,62,212
		C22.1,184.2,6,127.4,26.1,83.1C42,44.3,82.3,17.3,124.3,17.5 M120.3,109.3c-5.9,2.5-11.6,7.9-11.4,14.7
		c-2,14.2,18.2,23.2,27.4,12.3C148.7,125.9,135.6,104.1,120.3,109.3z"/>
</g>
</svg>
